www/assets/icons/no_photography.svg

<svg width="24" height="24" viewBox="0 0 24 24" xmlns="http://www.w3.org/2000/svg" fill='currentColor'><path d="M11.6 7.41502L8.14 3.95502L9.66 2.29502H15.66L17.49 4.29502H20.66C21.76 4.29502 22.66 5.19502 22.66 6.29502V18.295C22.66 18.345 22.65 18.395 22.64 18.455L17.54 13.355C17.62 13.005 17.66 12.655 17.66 12.295C17.66 9.53502 15.42 7.29502 12.66 7.29502C12.3 7.29502 11.95 7.33502 11.6 7.41502ZM21.15 22.605L18.83 20.295H4.66C3.56 20.295 2.66 19.395 2.66 18.295V6.29502C2.66 5.70502 2.93 5.17502 3.34 4.80502L1.34 2.80502L2.76 1.39502L22.56 21.195L21.15 22.605ZM15.15 16.615L13.65 15.115C13.33 15.215 13.01 15.295 12.66 15.295C11 15.295 9.66 13.955 9.66 12.295C9.66 11.945 9.74 11.625 9.85 11.315L8.35 9.81502C7.91 10.535 7.66 11.385 7.66 12.295C7.66 15.055 9.9 17.295 12.66 17.295C13.57 17.295 14.42 17.045 15.15 16.615Z"/></svg>

<svg xmlns="http://www.w3.org/2000/svg" width="24" height="24" viewBox="0 0 24 24" fill='currentColor'><path d="m11.6 7.415-3.46-3.46 1.52-1.66h6l1.83 2h3.17c1.1 0 2 .9 2 2v12c0 .05-.01.1-.02.16l-5.1-5.1c.08-.35.12-.7.12-1.06 0-2.76-2.24-5-5-5-.36 0-.71.04-1.06.12m9.55 15.19-2.32-2.31H4.66c-1.1 0-2-.9-2-2v-12c0-.59.27-1.12.68-1.49l-2-2 1.42-1.41 19.8 19.8zm-6-5.99-1.5-1.5c-.32.1-.64.18-.99.18-1.66 0-3-1.34-3-3 0-.35.08-.67.19-.98l-1.5-1.5a4.74 4.74 0 0 0-.69 2.48c0 2.76 2.24 5 5 5 .91 0 1.76-.25 2.49-.68"/></svg>
